assets/img/icons_pokemon/bug.svg

<svg width="256" height="256" viewBox="0 0 256 256" fill="none" xmlns="http://www.w3.org/2000/svg">
<g clip-path="url(#clip0_55_712)">
<path d="M128 256C198.692 256 256 198.692 256 128C256 57.3075 198.692 0 128 0C57.3075 0 0 57.3075 0 128C0 198.692 57.3075 256 128 256Z" fill="#9F9F28"/>
<path d="M57.8399 144.71C57.8299 127.31 59.4399 115.86 64.2299 105.03C68.0399 96.3999 72.3699 94.9099 79.4099 100.49C88.9699 108.06 99.5399 113.2 111.41 115.84C117.81 117.27 120.26 121.02 118.14 127.58C110.91 149.97 103.65 172.36 96.7399 194.85C94.3599 202.58 90.7799 202.32 85.2599 198.12C65.6999 183.23 57.9999 162.9 57.8399 144.71Z" fill="white"/>
<path d="M198.18 140.28C197.98 162.71 190.39 181.9 172.97 196.53C164.46 203.67 161.82 202.86 158.58 192.73C151.83 171.58 145.41 150.32 138.4 129.25C135.79 121.42 137.61 117.33 145.78 115.54C156.95 113.09 166.96 108.09 175.99 100.96C183.7 94.8699 187.85 96.1399 191.85 105.25C196.76 116.42 198.18 128.23 198.18 140.27V140.28Z" fill="white"/>
<path d="M127.91 105.03C112.49 105.45 99.21 100.27 87.35 90.9299C81.18 86.0799 80.28 81.5899 86.28 75.3999C110.04 50.8599 145.32 50.7399 169.41 75.0599C175.86 81.5699 174.83 86.2199 168.26 91.2799C156.3 100.48 142.99 105.59 127.92 105.03H127.91Z" fill="white"/>
<path d="M128.4 179.08C132.43 178.86 136.05 178.71 139.67 178.44C144.42 178.09 145.85 181.04 146.68 184.98C147.52 188.95 146.15 191.27 142.29 192.41C132.88 195.19 123.5 195.13 114.07 192.54C109.67 191.33 108.48 188.7 109.44 184.37C110.38 180.14 112.49 178.05 116.97 178.45C120.91 178.8 124.86 178.89 128.41 179.08H128.4Z" fill="white"/>
<path d="M127.89 170.73C123.03 169.83 115.88 172.18 116.23 163.73C116.54 156.28 121.51 154.5 128.66 154.52C135.87 154.54 139.71 157.52 139.76 164.04C139.83 172.41 132.6 169.75 127.9 170.73H127.89Z" fill="white"/>
</g>
<defs>
<clipPath id="clip0_55_712">
<rect width="256" height="256" fill="white"/>
</clipPath>
</defs>
</svg>

<?xml version="1.0" encoding="UTF-8"?>
<svg id="Layer_1" data-name="Layer 1" xmlns="http://www.w3.org/2000/svg" viewBox="0 0 256 256">
  <defs>
    <style>
      .cls-1 {
        fill: #fff;
      }

      .cls-2 {
        fill: #9f9f28;
      }
    </style>
  </defs>
  <circle class="cls-2" cx="128" cy="128" r="128"/>
  <path class="cls-1" d="M57.84,144.71c-.01-17.4,1.6-28.85,6.39-39.68,3.81-8.63,8.14-10.12,15.18-4.54,9.56,7.57,20.13,12.71,32,15.35,6.4,1.43,8.85,5.18,6.73,11.74-7.23,22.39-14.49,44.78-21.4,67.27-2.38,7.73-5.96,7.47-11.48,3.27-19.56-14.89-27.26-35.22-27.42-53.41Z"/>
  <path class="cls-1" d="M198.18,140.28c-.2,22.43-7.79,41.62-25.21,56.25-8.51,7.14-11.15,6.33-14.39-3.8-6.75-21.15-13.17-42.41-20.18-63.48-2.61-7.83-.79-11.92,7.38-13.71,11.17-2.45,21.18-7.45,30.21-14.58,7.71-6.09,11.86-4.82,15.86,4.29,4.91,11.17,6.33,22.98,6.33,35.02Z"/>
  <path class="cls-1" d="M127.91,105.03c-15.42,.42-28.7-4.76-40.56-14.1-6.17-4.85-7.07-9.34-1.07-15.53,23.76-24.54,59.04-24.66,83.13-.34,6.45,6.51,5.42,11.16-1.15,16.22-11.96,9.2-25.27,14.31-40.34,13.75Z"/>
  <path class="cls-1" d="M128.4,179.08c4.03-.22,7.65-.37,11.27-.64,4.75-.35,6.18,2.6,7.01,6.54,.84,3.97-.53,6.29-4.39,7.43-9.41,2.78-18.79,2.72-28.22,.13-4.4-1.21-5.59-3.84-4.63-8.17,.94-4.23,3.05-6.32,7.53-5.92,3.94,.35,7.89,.44,11.44,.63Z"/>
  <path class="cls-1" d="M127.89,170.73c-4.86-.9-12.01,1.45-11.66-7,.31-7.45,5.28-9.23,12.43-9.21,7.21,.02,11.05,3,11.1,9.52,.07,8.37-7.16,5.71-11.86,6.69Z"/>
</svg>
